svg/300/outlined/measuring_tape-fill.svg

<svg xmlns="http://www.w3.org/2000/svg" width="48" height="48" viewBox="0 -960 960 960"><path d="M212.309-180.001V-500q0-133.646 93.153-226.823 93.154-93.176 226.769-93.176 133.614 0 226.844 93.154 93.231 93.154 93.231 226.768 0 133.615-93.176 226.845-93.176 93.231-226.823 93.231H212.309Zm319.998-190q54.154 0 92.077-37.923 37.922-37.922 37.922-92.076 0-54.154-37.922-92.076-37.923-37.923-92.077-37.923-54.153 0-92.076 37.923-37.923 37.922-37.923 92.076 0 54.154 37.923 92.076 37.923 37.923 92.076 37.923Zm.19-45.383q-35.498 0-60.152-24.464-24.654-24.464-24.654-59.962 0-35.498 24.464-60.152 24.464-24.654 59.962-24.654 35.498 0 60.152 24.464 24.654 24.464 24.654 59.962 0 35.498-24.464 60.152-24.464 24.654-59.962 24.654ZM107.694-180.001V-360h45.384v179.999h-45.384Z"/></svg>

<svg xmlns="http://www.w3.org/2000/svg" width="48" height="48" viewBox="0 -960 960 960"><path d="M212.31-180v-320q0-133.65 93.15-226.82Q398.62-820 532.23-820t226.85 93.16q93.23 93.15 93.23 226.76 0 133.62-93.18 226.85Q665.95-180 532.31-180h-320Zm320-190q54.15 0 92.07-37.92 37.93-37.93 37.93-92.08t-37.93-92.08Q586.46-630 532.31-630q-54.16 0-92.08 37.92-37.92 37.93-37.92 92.08t37.92 92.08Q478.15-370 532.31-370Zm.19-45.38q-35.5 0-60.15-24.47-24.66-24.46-24.66-59.96t24.47-60.15q24.46-24.66 59.96-24.66 35.49 0 60.15 24.47 24.65 24.46 24.65 59.96t-24.46 60.15Q568-415.38 532.5-415.38ZM107.69-180v-180h45.39v180h-45.39Z"/></svg>
